X: 29203
T: New Custom House, The
R: reel
M: 4/4
K: Ddorian
FG|:A2DE FGAB|cAGE CDEG|A2DE FGAB|cAdB cAGE|
ADDD FGAB|c2GE CDEG|Addc d2cd|cAGE EDD2:|
|:Addc (3ded cd|edcd egge|Addc d2cd|eAag edcd|
Addc d2 cd|edcd egg2|a3g egdc|cAGE EDD2:|

